src/assets/mh-icons/Bow_Rank_01.svg

<?xml version="1.0" encoding="UTF-8" standalone="no"?>
<svg
   width="100%"
   height="100%"
   viewBox="0 0 64 64"
   version="1.1"
   xml:space="preserve"
   style="fill-rule:evenodd;clip-rule:evenodd;stroke-linejoin:round;stroke-miterlimit:2;"
   id="svg50"
   sodipodi:docname="Bow_Rank_01.svg"
   inkscape:version="1.2.2 (732a01da63, 2022-12-09)"
   xmlns:inkscape="http://www.inkscape.org/namespaces/inkscape"
   xmlns:sodipodi="http://sodipodi.sourceforge.net/DTD/sodipodi-0.dtd"
   xmlns="http://www.w3.org/2000/svg"
   xmlns:svg="http://www.w3.org/2000/svg"><defs
   id="defs54">
        
    
            
        
                
                
                
            </defs><sodipodi:namedview
   id="namedview52"
   pagecolor="#505050"
   bordercolor="#eeeeee"
   borderopacity="1"
   inkscape:showpageshadow="0"
   inkscape:pageopacity="0"
   inkscape:pagecheckerboard="0"
   inkscape:deskcolor="#505050"
   showgrid="false"
   inkscape:zoom="16.046875"
   inkscape:cx="32.062317"
   inkscape:cy="31.968841"
   inkscape:window-width="3440"
   inkscape:window-height="1377"
   inkscape:window-x="-8"
   inkscape:window-y="-8"
   inkscape:window-maximized="1"
   inkscape:current-layer="svg50" />
    <path
   id="background"
   style="fill-opacity:0.77;fill:none;stroke:#000000;stroke-opacity:1;stroke-width:4;stroke-dasharray:none;stroke-linejoin:round"
   d="M 37 5 C 36.000001 5 34 5.000001 34 6 C 34 6.999999 37 8.000002 37 10 C 37 11.999998 35.999998 13 34 13 C 32.000002 13 27.999996 11 24 11 C 23.226744 11 22.530025 11.076493 21.90625 11.21875 L 18.734375 8.046875 L 18.441406 7.7539062 L 16.441406 5.7539062 C 15.660407 4.972907 14.392327 4.972907 13.611328 5.7539062 C 12.831329 6.5339055 12.831329 7.802032 13.611328 8.5820312 L 15.611328 10.582031 L 15.904297 10.875 L 18.572266 13.542969 C 18.192453 14.248237 18 15.075567 18 16 C 18 17.951755 20.103096 20.318841 21.582031 22.291016 C 20.513436 22.721914 19.552962 23.589856 18.736328 24.560547 C 18.24553 24.210377 17.648425 24 17 24 C 16.448001 24 16 24.448001 16 25 L 16 29 L 13 30.509766 L 13 29 L 9 29 L 4 32 L 9 35 L 13 35 L 13 33.5 L 16 35 L 16 39 C 16 39.551999 16.448001 40 17 40 C 17.334407 40 17.650709 39.933145 17.951172 39.832031 C 18.689536 41.102242 19.636946 42.252285 20.794922 42.744141 C 19.453409 44.475137 18 46.379777 18 48 C 18 48.984534 18.219587 49.85801 18.650391 50.591797 L 15.904297 53.339844 L 15.611328 53.630859 L 13.611328 55.630859 C 12.831329 56.410859 12.831329 57.680938 13.611328 58.460938 C 14.392327 59.240937 15.660407 59.240937 16.441406 58.460938 L 18.441406 56.460938 L 18.734375 56.169922 L 22.085938 52.818359 C 22.663791 52.935678 23.299456 53 24 53 C 27.999996 53 32.000002 51 34 51 C 35.999998 51 37 52.000002 37 54 C 37 55.999998 34 57.000001 34 58 C 34 58.999999 36.000001 59 37 59 C 37.999999 59 41 54.999998 41 53 C 41 51.000002 38.999998 48 37 48 C 35.000002 48 32.999996 49 29 49 C 25.000004 49 22 47.999998 22 46 C 22 44.829554 23.022669 43.658727 23.875 42.488281 C 25.167546 41.882164 26.592515 40.790083 28 39.583984 L 28 40 L 30 40 C 31.103999 40 32 39.103999 32 38 L 32 36.015625 C 33.300767 34.864579 34.394266 34 35 34 L 39 34 L 46 41 L 47 41 L 50 41 L 52 41 L 55 41 L 57 41 L 60 41 L 62 41 L 54 33 L 54 31 L 62 23 L 60 23 L 57 23 L 55 23 L 52 23 L 50 23 L 47 23 L 46 23 L 39 30 L 35 30 C 34.355977 30 33.273216 29.136545 32 28.011719 L 32 26 C 32 24.896001 31.103999 24 30 24 L 28 24 L 28 24.509766 C 26.776058 23.526326 25.538564 22.69561 24.390625 22.283203 C 24.166754 21.917964 23.913734 21.552554 23.640625 21.1875 L 23.359375 20.8125 C 22.658376 19.874501 22 18.936999 22 18 C 22 16.000002 25.000004 15 29 15 C 32.999996 15 35.000002 16 37 16 C 38.999998 16 41 12.999998 41 11 C 41 9.008002 38.022718 5.031 37.011719 5 L 37 5 z " />
<g
   transform="matrix(1,0,0,1,0,-832)"
   id="g847">
        <g
   transform="matrix(1,0,0,1,-832,-128)"
   id="g845">
            <g
   id="g843">
                <path
   id="base"
   d="m 850.441,1016.46 -2.829,-2.83 4.293,-4.29 2.829,2.83 z M 844.027,991 848,989 c 0,0 3,-7 7,-7 4,0 10,8 12,8 h 4 l 7,-7 h 16 l -8,8 v 2 l 8,8 h -16 l -7,-7 h -4 c -2,0 -9,9 -13,9 -4,0 -6,-8 -6,-8 l -4,-2 z m 6.414,-23.246 -2.829,2.828 4.293,4.293 2.829,-2.828 z"
   style="display:inline;fill:#242424;fill-opacity:1"
   inkscape:label="base" />
                <path
   id="path839"
   d="M857,996L857,1000C857,1002 854,1004 854,1006C854,1008 857,1009 861,1009C865,1009 867,1008 869,1008C871,1008 873,1011 873,1013C873,1015 870,1019 869,1019C868,1019 866,1019 866,1018C866,1017 869,1016 869,1014C869,1012 868,1011 866,1011C864,1011 860,1013 856,1013C852,1013 850,1011 850,1008C850,1005 855,1001 855,999L855,996C855,996 855,995 856,995C857,995 857,996 857,996ZM887,1001L884,1001L878,995L881,995L887,1001ZM841,989L836,992L841,995L845,995L845,989L841,989ZM887,983L884,983L878,989L881,989L887,983ZM869.012,965C870.023,965.031 873,969.008 873,971C873,973 871,976 869,976C867,976 865,975 861,975C857,975 854,976 854,978C854,978.937 854.659,979.875 855.36,980.813L855.64,981.188C856.341,982.125 857,983.063 857,984L857,988C857,988 857,989 856,989C855,989 855,988 855,988L855,985C855,983 850,979 850,976C850,973 852,971 856,971C860,971 864,973 866,973C868,973 869,972 869,970C869,968 866,967 866,966C866,965 868,965 869,965L869.012,965Z"
   style="fill:rgb(150,150,150);" />
                <path
   id="path841"
   d="M848.441,1018.46C847.66,1019.24 846.393,1019.24 845.612,1018.46C844.832,1017.68 844.832,1016.41 845.612,1015.63L847.905,1013.34L850.734,1016.17L848.441,1018.46ZM892,1001L889,1001L883,995L886,995L892,1001ZM882,1001L879,1001L873,995L876,995L882,1001ZM852,997C852,998.656 850.656,1000 849,1000C848.448,1000 848,999.552 848,999L848,995L852,995L852,997ZM864,998C864,999.104 863.104,1000 862,1000L860,1000L860,995L864,995L864,998ZM886,991L848,991L848,993L886,993L886,991ZM892,983L889,983L883,989L886,989L892,983ZM882,983L879,983L873,989L876,989L882,983ZM852,987C852,985.344 850.656,984 849,984C848.448,984 848,984.448 848,985L848,989L852,989L852,987ZM864,986C864,984.896 863.104,984 862,984L860,984L860,989L864,989L864,986ZM848.441,965.754C847.66,964.973 846.393,964.973 845.612,965.754C844.832,966.534 844.832,967.802 845.612,968.582L847.905,970.875L850.734,968.047L848.441,965.754Z"
   style="fill:rgb(181,181,181);" />
            </g>
        </g>
    </g></svg>

<?xml version="1.0" encoding="UTF-8" standalone="no"?>
<svg
   width="100%"
   height="100%"
   viewBox="0 0 64 64"
   version="1.1"
   xml:space="preserve"
   style="fill-rule:evenodd;clip-rule:evenodd;stroke-linejoin:round;stroke-miterlimit:2;"
   id="svg50"
   sodipodi:docname="Bow_Rank_01.svg"
   inkscape:version="1.2.2 (732a01da63, 2022-12-09)"
   xmlns:inkscape="http://www.inkscape.org/namespaces/inkscape"
   xmlns:sodipodi="http://sodipodi.sourceforge.net/DTD/sodipodi-0.dtd"
   xmlns="http://www.w3.org/2000/svg"
   xmlns:svg="http://www.w3.org/2000/svg"><defs
   id="defs54">
        
    
            
        
                
                
                
            </defs><sodipodi:namedview
   id="namedview52"
   pagecolor="#505050"
   bordercolor="#eeeeee"
   borderopacity="1"
   inkscape:showpageshadow="0"
   inkscape:pageopacity="0"
   inkscape:pagecheckerboard="0"
   inkscape:deskcolor="#505050"
   showgrid="false"
   inkscape:zoom="16.046875"
   inkscape:cx="32"
   inkscape:cy="31.968841"
   inkscape:window-width="3440"
   inkscape:window-height="1377"
   inkscape:window-x="-8"
   inkscape:window-y="-8"
   inkscape:window-maximized="1"
   inkscape:current-layer="svg50" />
    <path
   id="background"
   style="fill-opacity:0.77;fill:none;stroke:#000000;stroke-opacity:1;stroke-width:4;stroke-dasharray:none;stroke-linejoin:round"
   d="M 37 5 C 36.000001 5 34 5.000001 34 6 C 34 6.999999 37 8.000002 37 10 C 37 11.999998 35.999998 13 34 13 C 32.000002 13 27.999996 11 24 11 C 23.226744 11 22.530025 11.076493 21.90625 11.21875 L 18.734375 8.046875 L 18.441406 7.7539062 L 16.441406 5.7539062 C 15.660407 4.972907 14.392327 4.972907 13.611328 5.7539062 C 12.831329 6.5339055 12.831329 7.802032 13.611328 8.5820312 L 15.611328 10.582031 L 15.904297 10.875 L 18.572266 13.542969 C 18.192453 14.248237 18 15.075567 18 16 C 18 17.951755 20.103096 20.318841 21.582031 22.291016 C 20.513436 22.721914 19.552962 23.589856 18.736328 24.560547 C 18.24553 24.210377 17.648425 24 17 24 C 16.448001 24 16 24.448001 16 25 L 16 29 L 13 30.509766 L 13 29 L 9 29 L 4 32 L 9 35 L 13 35 L 13 33.5 L 16 35 L 16 39 C 16 39.551999 16.448001 40 17 40 C 17.334407 40 17.650709 39.933145 17.951172 39.832031 C 18.689536 41.102242 19.636946 42.252285 20.794922 42.744141 C 19.453409 44.475137 18 46.379777 18 48 C 18 48.984534 18.219587 49.85801 18.650391 50.591797 L 15.904297 53.339844 L 15.611328 53.630859 L 13.611328 55.630859 C 12.831329 56.410859 12.831329 57.680938 13.611328 58.460938 C 14.392327 59.240937 15.660407 59.240937 16.441406 58.460938 L 18.441406 56.460938 L 18.734375 56.169922 L 22.085938 52.818359 C 22.663791 52.935678 23.299456 53 24 53 C 27.999996 53 32.000002 51 34 51 C 35.999998 51 37 52.000002 37 54 C 37 55.999998 34 57.000001 34 58 C 34 58.999999 36.000001 59 37 59 C 37.999999 59 41 54.999998 41 53 C 41 51.000002 38.999998 48 37 48 C 35.000002 48 32.999996 49 29 49 C 25.000004 49 22 47.999998 22 46 C 22 44.829554 23.022669 43.658727 23.875 42.488281 C 25.167546 41.882164 26.592515 40.790083 28 39.583984 L 28 40 L 30 40 C 31.103999 40 32 39.103999 32 38 L 32 36.015625 C 33.300767 34.864579 34.394266 34 35 34 L 39 34 L 46 41 L 47 41 L 50 41 L 52 41 L 55 41 L 57 41 L 60 41 L 62 41 L 54 33 L 54 31 L 62 23 L 60 23 L 57 23 L 55 23 L 52 23 L 50 23 L 47 23 L 46 23 L 39 30 L 35 30 C 34.355977 30 33.273216 29.136545 32 28.011719 L 32 26 C 32 24.896001 31.103999 24 30 24 L 28 24 L 28 24.509766 C 26.776058 23.526326 25.538564 22.69561 24.390625 22.283203 C 24.166754 21.917964 23.913734 21.552554 23.640625 21.1875 L 23.359375 20.8125 C 22.658376 19.874501 22 18.936999 22 18 C 22 16.000002 25.000004 15 29 15 C 32.999996 15 35.000002 16 37 16 C 38.999998 16 41 12.999998 41 11 C 41 9.008002 38.022718 5.031 37.011719 5 L 37 5 z " />
<g
   transform="matrix(1,0,0,1,0,-832)"
   id="g847">
        <g
   transform="matrix(1,0,0,1,-832,-128)"
   id="g845">
            <g
   id="g843">
                <path
   id="path837"
   d="M850.441,1016.46L847.612,1013.63L851.905,1009.34L854.734,1012.17L850.441,1016.46ZM844.027,991L848,989C848,989 851,982 855,982C859,982 865,990 867,990L871,990L878,983L894,983L886,991L886,993L894,1001L878,1001L871,994L867,994C865,994 858,1003 854,1003C850,1003 848,995 848,995L844,993L844.027,991ZM850.441,967.754L847.612,970.582L851.905,974.875L854.734,972.047L850.441,967.754Z"
   style="fill-opacity:1;fill:#242424" />
                <path
   id="path839"
   d="M857,996L857,1000C857,1002 854,1004 854,1006C854,1008 857,1009 861,1009C865,1009 867,1008 869,1008C871,1008 873,1011 873,1013C873,1015 870,1019 869,1019C868,1019 866,1019 866,1018C866,1017 869,1016 869,1014C869,1012 868,1011 866,1011C864,1011 860,1013 856,1013C852,1013 850,1011 850,1008C850,1005 855,1001 855,999L855,996C855,996 855,995 856,995C857,995 857,996 857,996ZM887,1001L884,1001L878,995L881,995L887,1001ZM841,989L836,992L841,995L845,995L845,989L841,989ZM887,983L884,983L878,989L881,989L887,983ZM869.012,965C870.023,965.031 873,969.008 873,971C873,973 871,976 869,976C867,976 865,975 861,975C857,975 854,976 854,978C854,978.937 854.659,979.875 855.36,980.813L855.64,981.188C856.341,982.125 857,983.063 857,984L857,988C857,988 857,989 856,989C855,989 855,988 855,988L855,985C855,983 850,979 850,976C850,973 852,971 856,971C860,971 864,973 866,973C868,973 869,972 869,970C869,968 866,967 866,966C866,965 868,965 869,965L869.012,965Z"
   style="fill:rgb(150,150,150);" />
                <path
   id="path841"
   d="M848.441,1018.46C847.66,1019.24 846.393,1019.24 845.612,1018.46C844.832,1017.68 844.832,1016.41 845.612,1015.63L847.905,1013.34L850.734,1016.17L848.441,1018.46ZM892,1001L889,1001L883,995L886,995L892,1001ZM882,1001L879,1001L873,995L876,995L882,1001ZM852,997C852,998.656 850.656,1000 849,1000C848.448,1000 848,999.552 848,999L848,995L852,995L852,997ZM864,998C864,999.104 863.104,1000 862,1000L860,1000L860,995L864,995L864,998ZM886,991L848,991L848,993L886,993L886,991ZM892,983L889,983L883,989L886,989L892,983ZM882,983L879,983L873,989L876,989L882,983ZM852,987C852,985.344 850.656,984 849,984C848.448,984 848,984.448 848,985L848,989L852,989L852,987ZM864,986C864,984.896 863.104,984 862,984L860,984L860,989L864,989L864,986ZM848.441,965.754C847.66,964.973 846.393,964.973 845.612,965.754C844.832,966.534 844.832,967.802 845.612,968.582L847.905,970.875L850.734,968.047L848.441,965.754Z"
   style="fill:rgb(181,181,181);" />
            </g>
        </g>
    </g></svg>
